packages/icons/raw/imported/MapsMap.svg

<svg width="32" height="32" viewBox="0 0 32 32" fill="none" xmlns="http://www.w3.org/2000/svg">
<path d="M13.0993 6.5L13.2848 6.03568L12.6003 5.76224L12.5993 6.49932L13.0993 6.5ZM23.4418 7.32517L23.2558 6.86107L23.4418 7.32517ZM20.4252 8.53459L20.2391 8.0705L20.4252 8.53459ZM24.8716 23.2701L25.0573 23.7343L24.8716 23.2701ZM20.4123 25.0547L20.2265 24.5905L20.4123 25.0547ZM18.1959 8.53597L18.0104 9.0003L18.1959 8.53597ZM18.1865 25.0561L18.3717 24.5917V24.5917L18.1865 25.0561ZM13.077 6.5H13.577V5.77649L12.9002 6.03229L13.077 6.5ZM7.80379 8.49307L7.62702 8.02536L7.80379 8.49307ZM8.53108 24.7337L8.70758 25.2015L8.70758 25.2015L8.53108 24.7337ZM6.5109 10.3625L6.0109 10.3621L6.5109 10.3625ZM6.50159 23.3292L6.00159 23.3288L6.50159 23.3292ZM19.4231 9.42308C19.4231 9.14693 19.1992 8.92308 18.9231 8.92308C18.647 8.92308 18.4231 9.14693 18.4231 9.42308H19.4231ZM18.4231 24.7692C18.4231 25.0454 18.647 25.2692 18.9231 25.2692C19.1992 25.2692 19.4231 25.0454 19.4231 24.7692H18.4231ZM25 8.71744V22.3417H26V8.71744H25ZM12.5993 6.49932L12.577 23.018L13.577 23.0193L13.5993 6.50068L12.5993 6.49932ZM23.2558 6.86107L20.2391 8.0705L20.6113 8.99868L23.6279 7.78926L23.2558 6.86107ZM24.6858 22.8059L20.2265 24.5905L20.5981 25.5189L25.0573 23.7343L24.6858 22.8059ZM18.3814 8.07165L13.2848 6.03568L12.9138 6.96432L18.0104 9.0003L18.3814 8.07165ZM18.3717 24.5917L13.2621 22.5542L12.8918 23.4831L18.0013 25.5205L18.3717 24.5917ZM20.2265 24.5905C19.6313 24.8287 18.9672 24.8292 18.3717 24.5917L18.0013 25.5205C18.835 25.853 19.7647 25.8524 20.5981 25.5189L20.2265 24.5905ZM25 22.3417C25 22.5461 24.8756 22.73 24.6858 22.8059L25.0573 23.7343C25.6267 23.5065 26 22.955 26 22.3417H25ZM20.2391 8.0705C19.643 8.30949 18.9778 8.30991 18.3814 8.07165L18.0104 9.0003C18.8454 9.33385 19.7767 9.33327 20.6113 8.99868L20.2391 8.0705ZM26 8.71744C26 7.30183 24.5697 6.33429 23.2558 6.86107L23.6279 7.78926C24.2849 7.52587 25 8.00964 25 8.71744H26ZM12.577 6.5V23.0186H13.577V6.5H12.577ZM12.9002 6.03229L7.62702 8.02536L7.98057 8.96078L13.2537 6.96771L12.9002 6.03229ZM12.9005 22.5508L8.35458 24.2659L8.70758 25.2015L13.2534 23.4864L12.9005 22.5508ZM6.0109 10.3621L6.00159 23.3288L7.00159 23.3296L7.0109 10.3628L6.0109 10.3621ZM7.62702 8.02536C6.65505 8.39273 6.01165 9.32302 6.0109 10.3621L7.0109 10.3628C7.01135 9.73937 7.39739 9.1812 7.98057 8.96078L7.62702 8.02536ZM8.35458 24.2659C7.70024 24.5128 7.00108 24.0289 7.00159 23.3296L6.00159 23.3288C6.00058 24.7276 7.3989 25.6953 8.70758 25.2015L8.35458 24.2659ZM18.4231 9.42308V24.7692H19.4231V9.42308H18.4231Z" fill="black"/>
</svg>

<svg width="32" height="32" fill="none" xmlns="http://www.w3.org/2000/svg"><path d="m13.1 6.5.185-.464-.685-.274V6.5l.5.001Zm10.342.825-.186-.464.186.464Zm-3.017 1.21-.186-.465.186.465Zm4.447 14.735.185.464-.185-.464Zm-4.46 1.785-.185-.465.185.465ZM18.196 8.536 18.01 9l.186-.464Zm-.01 16.52.186-.464-.186.464ZM13.077 6.5h.5v-.724l-.677.256.177.468ZM7.804 8.493l-.177-.468.177.468Zm.727 16.24.177.468-.177-.467Zm-2.02-14.37h-.5.5ZM6.5 23.328h-.5.5ZM19.424 9.423a.5.5 0 0 0-1 0h1Zm-1 15.346a.5.5 0 1 0 1 0h-1ZM25 8.717v13.625h1V8.717h-1ZM12.6 6.5l-.023 16.519 1 .001.022-16.518-1-.002Zm10.656.362-3.017 1.21.372.928 3.017-1.21-.372-.928Zm1.43 15.945-4.46 1.784.372.929 4.46-1.785-.372-.928ZM18.38 8.072l-5.096-2.036-.371.928L18.01 9l.371-.928Zm-.01 16.52-5.109-2.038-.37.93 5.11 2.036.37-.928Zm1.856-.002a2.5 2.5 0 0 1-1.855.002l-.37.928a3.5 3.5 0 0 0 2.596-.001l-.371-.928ZM25 22.342a.5.5 0 0 1-.314.464l.371.928A1.5 1.5 0 0 0 26 22.342h-1ZM20.24 8.07a2.5 2.5 0 0 1-1.859 0l-.37.93a3.5 3.5 0 0 0 2.6-.002l-.372-.929Zm5.76.646a2 2 0 0 0-2.744-1.856l.372.928A1 1 0 0 1 25 8.717h1ZM12.577 6.5v16.519h1V6.5h-1Zm.323-.468L7.627 8.025l.354.936 5.273-1.993-.354-.936Zm0 16.519-4.545 1.715.353.936 4.545-1.716-.353-.935ZM6.01 10.362 6.003 23.33h1l.009-12.966h-1Zm1.617-2.337a2.5 2.5 0 0 0-1.616 2.337h1a1.5 1.5 0 0 1 .97-1.401l-.354-.936Zm.728 16.24a1 1 0 0 1-1.353-.935l-1-.001A2 2 0 0 0 8.708 25.2l-.353-.935ZM18.423 9.424V24.77h1V9.423h-1Z" fill="#000"/></svg>
